X: 1
T: Sl\"angpolska efter Per Erik Olsson, Hidinge, N\"arke
O: from David Bastviken Aug 1996
Z: John Chambers <jc@trillian.mit.edu>
M: 3/4
L: 1/16
K:A
|: "A"e4 cAce "D"dcdf | "A"e2e2 cAce "D"dcdf \
| "A"e2e2 agfe "D"fedc |1,3 "E7"~c2B2 B2Be "A"c2A2 :|2,4 "E7"~c2Bc B4 "A"A4 :|
|: "A"E3A A2c2 c2e2 | "E7"e2d2 dBGB "A"d2c2 \
|1,3 E3A A2c2 c2e2 | e2a2 "D"afdf "E7"e4 :|2,4 "A"A2ce agfe "D"fedc | "E7"~c2Bc B4 "A"A4 :|

%%sep 1 1 500

